X: 1610
T: McDermott's Hornpipe
R: hornpipe
B: O'Neill's 1850 #1610
O: Cronin
Z: Michael D. Long, 10/06/98
Z: Michael Hogan
Z: Compacted via repeats and multiple endings [JC]
M: 2/4
L: 1/16
K: D
D2 |: d>f (3(edc) d2B2 | (3(ABA) G>A F>GEF |1,3 D>d (3ddd c>e (3eee | d>fe>d cABc :|2,4 DFAF GABd | c>e (3(ABc) d2 :|
|: (de) |: f2fd fgaf | g2gf gbag |1,3 f2fd fgab | agfe dcBA :|2,4 (3(fgf) d>f (3(efe) c>e | dfed cABc :|
%%text The 2nd strain has extra notes at the repeat.
